X: 426
T:Captain Kelly's
M:4/4
L:1/8
R:Reel
N:Posted to the woodenflute mailing list August 2001
S:Michael Rooney
Z:Pat Higgins
Z:abc headers added Steve Mansfield
K:G
|GBAB G2ge|dBAc BEE2|GBAB G2ge|dBAB G3D|
|G2(Bcd g3e|dBAc BEE2|GBAB G2ge|dBAB G2Bd|
|g2bg agbg|egdg edBd|g3b agbg|dega bgg2|
|g2bg agbg|egdg ed(Bcd|g2ag ed(Bcd|(efg ag edBA|
"Heres a variation to the last 2 bars that I think I heard..."
|g2fg edBd|g2ag edBA|

